svgs/duotone/cloud-word.svg

<svg xmlns="http://www.w3.org/2000/svg" viewBox="0 0 640 512"><!--! Font Awesome Pro 6.4.2 by @fontawesome - https://fontawesome.com License - https://fontawesome.com/license (Commercial License) Copyright 2023 Fonticons, Inc. --><path class="fa-primary" style="fill:var(--fa-primary-color,inherit);opacity:var(--fa-primary-opacity,1);" d="M128 304c0-8.8 7.2-16 16-16H336c8.8 0 16 7.2 16 16s-7.2 16-16 16H144c-8.8 0-16-7.2-16-16zm112 48c8.8 0 16 7.2 16 16s-7.2 16-16 16H144c-8.8 0-16-7.2-16-16s7.2-16 16-16h96zm256 0c8.8 0 16 7.2 16 16s-7.2 16-16 16H304c-8.8 0-16-7.2-16-16s7.2-16 16-16H496zm-96-64h96c8.8 0 16 7.2 16 16s-7.2 16-16 16H400c-8.8 0-16-7.2-16-16s7.2-16 16-16z"/><path class="fa-secondary" style="fill:var(--fa-secondary-color,inherit);opacity:var(--fa-secondary-opacity,.4);" d="M0 336c0 79.5 64.5 144 144 144H512c70.7 0 128-57.3 128-128c0-61.9-44-113.6-102.4-125.4c4.1-10.7 6.4-22.4 6.4-34.6c0-53-43-96-96-96c-19.7 0-38.1 6-53.3 16.2C367 64.2 315.3 32 256 32C167.6 32 96 103.6 96 192c0 2.7 .1 5.4 .2 8.1C40.2 219.8 0 273.2 0 336zm512 32c0 8.8-7.2 16-16 16H304c-8.8 0-16-7.2-16-16s7.2-16 16-16H496c8.8 0 16 7.2 16 16zM240 352c8.8 0 16 7.2 16 16s-7.2 16-16 16H144c-8.8 0-16-7.2-16-16s7.2-16 16-16h96zM128 304c0-8.8 7.2-16 16-16H336c8.8 0 16 7.2 16 16s-7.2 16-16 16H144c-8.8 0-16-7.2-16-16zm272-16h96c8.8 0 16 7.2 16 16s-7.2 16-16 16H400c-8.8 0-16-7.2-16-16s7.2-16 16-16z"/></svg>

<svg xmlns="http://www.w3.org/2000/svg" viewBox="0 0 640 512"><!--! Font Awesome Pro 6.1.1 by @fontawesome - https://fontawesome.com License - https://fontawesome.com/license (Commercial License) Copyright 2022 Fonticons, Inc. --><defs><style>.fa-secondary{opacity:.4}</style></defs><path class="fa-primary" d="M128 304C128 295.2 135.2 288 144 288H336C344.8 288 352 295.2 352 304C352 312.8 344.8 320 336 320H144C135.2 320 128 312.8 128 304zM240 352C248.8 352 256 359.2 256 368C256 376.8 248.8 384 240 384H144C135.2 384 128 376.8 128 368C128 359.2 135.2 352 144 352H240zM496 352C504.8 352 512 359.2 512 368C512 376.8 504.8 384 496 384H304C295.2 384 288 376.8 288 368C288 359.2 295.2 352 304 352H496zM496 288C504.8 288 512 295.2 512 304C512 312.8 504.8 320 496 320H400C391.2 320 384 312.8 384 304C384 295.2 391.2 288 400 288H496z"/><path class="fa-secondary" d="M96.2 200.1C96.07 197.4 96 194.7 96 192C96 103.6 167.6 32 256 32C315.3 32 367 64.25 394.7 112.2C409.9 101.1 428.3 96 448 96C501 96 544 138.1 544 192C544 204.2 541.7 215.8 537.6 226.6C596 238.4 640 290.1 640 352C640 422.7 582.7 480 512 480H144C64.47 480 0 415.5 0 336C0 273.2 40.17 219.8 96.2 200.1zM512 368C512 359.2 504.8 352 496 352H304C295.2 352 288 359.2 288 368C288 376.8 295.2 384 304 384H496C504.8 384 512 376.8 512 368zM144 352C135.2 352 128 359.2 128 368C128 376.8 135.2 384 144 384H240C248.8 384 256 376.8 256 368C256 359.2 248.8 352 240 352H144zM144 320H336C344.8 320 352 312.8 352 304C352 295.2 344.8 288 336 288H144C135.2 288 128 295.2 128 304C128 312.8 135.2 320 144 320zM400 288C391.2 288 384 295.2 384 304C384 312.8 391.2 320 400 320H496C504.8 320 512 312.8 512 304C512 295.2 504.8 288 496 288H400z"/></svg>
